packages/calcite-ui-icons/icons/layers-32-f.svg

<?xml version="1.0" encoding="UTF-8"?><svg id="icons" xmlns="http://www.w3.org/2000/svg" viewBox="0 0 32 32"><rect width="32" height="32" style="fill:none; stroke-width:0px;"/><path d="m30.5,11.49219l-14.5,8.50781L1.5,11.49219,16,3l14.5,8.49219Zm-2.78107,3.37122l-.98871.58014-10.73022,6.36145-10.73022-6.36145-.98871-.58014-2.78107,1.62878,14.5,8.50781,14.5-8.50781-2.78107-1.62878Zm0,5l-.98871.58014-10.73022,6.36145-10.73022-6.36145-.98871-.58014-2.78107,1.62878,14.5,8.50781,14.5-8.50781-2.78107-1.62878Z" style="stroke-width:0px;"/></svg>

<svg xmlns="http://www.w3.org/2000/svg" viewBox="0 0 32 32"><path fill="none" stroke-width="0" d="M0 0h32v32H0z"/><path d="M30.5 11.492L16 20 1.5 11.492 16 3l14.5 8.492zm-2.781 3.371l-.989.58L16 21.806 5.27 15.444l-.989-.58L1.5 16.491 16 25l14.5-8.508-2.781-1.629zm0 5l-.989.58L16 26.806 5.27 20.444l-.989-.58L1.5 21.491 16 30l14.5-8.508-2.781-1.629z" stroke-width="0"/></svg>
